svg/OSM-icons/power #8e7489 °ffffff !label=enpower supply,deStromversorgung/26001;power=cable_distribution_cabinet;!operator=;!ref=;!voltage=;!label=enpower substation,deUnter- verteilung.svg

<svg xmlns="http://www.w3.org/2000/svg" viewBox="0 0 580 580" enable-background="new 0 0 580 580"><path fill="#111" stroke="#eee" stroke-width="3.408" d="m66.28 1.768c-41.34 0-64.57 21.371-64.57 65.04v450.12c0 40.844 20.895 62.23 62.19 62.23h452.02c41.31 0 62.23-20.315 62.23-62.23v-450.12c0-42.602-20.923-65.04-63.52-65.04-.003 0-448.5-.143-448.35 0z"/><g fill="#fff"><circle cx="120" cy="114" r="8"/><circle cx="188" cy="114" r="8"/><circle cx="392" cy="114" r="8"/><circle cx="460" cy="114" r="8"/><circle cx="120" cy="202" r="8"/><circle cx="460" cy="202" r="8"/><circle cx="120" cy="290" r="8"/><circle cx="460" cy="290" r="8"/><circle cx="120" cy="378" r="8"/><circle cx="460" cy="378" r="8"/><circle cx="120" cy="466" r="8"/><circle cx="188" cy="466" r="8"/><circle cx="392" cy="466" r="8"/><path d="m60.5 58.5v466h450v-466h-450m59.5 432c-13.531 0-24.5-10.969-24.5-24.5 0-13.53 10.969-24.5 24.5-24.5s24.5 10.97 24.5 24.5c0 13.531-10.969 24.5-24.5 24.5m0-88c-13.531 0-24.5-10.969-24.5-24.5 0-13.53 10.969-24.5 24.5-24.5s24.5 10.97 24.5 24.5c0 13.531-10.969 24.5-24.5 24.5m0-88c-13.531 0-24.5-10.969-24.5-24.5 0-13.531 10.969-24.5 24.5-24.5s24.5 10.969 24.5 24.5c0 13.531-10.969 24.5-24.5 24.5m0-88c-13.531 0-24.5-10.969-24.5-24.5 0-13.531 10.969-24.5 24.5-24.5s24.5 10.969 24.5 24.5c0 13.531-10.969 24.5-24.5 24.5m0-88c-13.531 0-24.5-10.969-24.5-24.5 0-13.531 10.969-24.5 24.5-24.5s24.5 10.969 24.5 24.5c0 13.531-10.969 24.5-24.5 24.5m68 352c-13.53 0-24.5-10.969-24.5-24.5 0-13.53 10.97-24.5 24.5-24.5 13.531 0 24.5 10.97 24.5 24.5 0 13.531-10.969 24.5-24.5 24.5m0-352c-13.53 0-24.5-10.969-24.5-24.5 0-13.531 10.97-24.5 24.5-24.5 13.531 0 24.5 10.969 24.5 24.5 0 13.531-10.969 24.5-24.5 24.5m204 352c-13.531 0-24.5-10.969-24.5-24.5 0-13.53 10.969-24.5 24.5-24.5s24.5 10.97 24.5 24.5c0 13.531-10.969 24.5-24.5 24.5m0-352c-13.531 0-24.5-10.969-24.5-24.5 0-13.531 10.969-24.5 24.5-24.5s24.5 10.969 24.5 24.5c0 13.531-10.969 24.5-24.5 24.5m68 352c-13.531 0-24.5-10.969-24.5-24.5 0-13.53 10.969-24.5 24.5-24.5s24.5 10.97 24.5 24.5c0 13.531-10.969 24.5-24.5 24.5m0-88c-13.531 0-24.5-10.969-24.5-24.5 0-13.53 10.969-24.5 24.5-24.5s24.5 10.97 24.5 24.5c0 13.531-10.969 24.5-24.5 24.5m0-88c-13.531 0-24.5-10.969-24.5-24.5 0-13.531 10.969-24.5 24.5-24.5s24.5 10.969 24.5 24.5c0 13.531-10.969 24.5-24.5 24.5m0-88c-13.531 0-24.5-10.969-24.5-24.5 0-13.531 10.969-24.5 24.5-24.5s24.5 10.969 24.5 24.5c0 13.531-10.969 24.5-24.5 24.5m0-88c-13.531 0-24.5-10.969-24.5-24.5 0-13.531 10.969-24.5 24.5-24.5s24.5 10.969 24.5 24.5c0 13.531-10.969 24.5-24.5 24.5"/><circle cx="460" cy="466" r="8"/></g><path d="m378.91 253.64l-126.69 11.95 63.12-166.05-52.34-17.07-54.16 197.88-7.75 28.33 26.99-5.35 111-20.76-39.92 134.99-25.83-24.88 3.57 104.85 72.61-75.73-33.83 1.24z"/></svg>

<?xml version="1.0" encoding="utf-8"?>
<!-- Generator: Adobe Illustrator 15.0.0, SVG Export Plug-In . SVG Version: 6.00 Build 0)  -->
<!DOCTYPE svg PUBLIC "-//W3C//DTD SVG 1.1//EN" "http://www.w3.org/Graphics/SVG/1.1/DTD/svg11.dtd">
<svg version="1.1" xmlns="http://www.w3.org/2000/svg" xmlns:xlink="http://www.w3.org/1999/xlink" x="0px" y="0px" width="580px"
	 height="580px" viewBox="0 0 580 580" enable-background="new 0 0 580 580" xml:space="preserve">
<g id="Layer_1">
	<g id="Layer_2">
		<g id="g1327">
			<path id="path1329" fill="#111111" stroke="#EEEEEE" stroke-width="3.408" d="M66.275,1.768
				c-41.335,0-64.571,21.371-64.571,65.036v450.123c0,40.844,20.895,62.229,62.192,62.229h452.024
				c41.307,0,62.229-20.315,62.229-62.229V66.804c0-42.602-20.923-65.036-63.521-65.036C514.625,1.768,66.133,1.625,66.275,1.768z"
				/>
		</g>
	</g>
</g>
<g id="Layer_2_1_">
	<circle fill="#FFFFFF" cx="119.999" cy="114" r="8"/>
	<circle fill="#FFFFFF" cx="187.999" cy="114" r="8"/>
	<circle fill="#FFFFFF" cx="392.001" cy="114" r="8"/>
	<circle fill="#FFFFFF" cx="460.001" cy="114" r="8"/>
	<circle fill="#FFFFFF" cx="119.999" cy="202" r="8"/>
	<circle fill="#FFFFFF" cx="460.001" cy="202" r="8"/>
	<circle fill="#FFFFFF" cx="119.999" cy="290" r="8"/>
	<circle fill="#FFFFFF" cx="460.001" cy="290" r="8"/>
	<circle fill="#FFFFFF" cx="119.999" cy="378" r="8"/>
	<circle fill="#FFFFFF" cx="460.001" cy="378" r="8"/>
	<circle fill="#FFFFFF" cx="119.999" cy="466" r="8"/>
	<circle fill="#FFFFFF" cx="187.999" cy="466" r="8"/>
	<circle fill="#FFFFFF" cx="392.001" cy="466" r="8"/>
	<g>
		<path fill="#FFFFFF" d="M60.5,58.5v466h450v-466H60.5z M119.999,490.5c-13.531,0-24.5-10.969-24.5-24.5
			c0-13.53,10.969-24.5,24.5-24.5s24.5,10.97,24.5,24.5C144.499,479.531,133.53,490.5,119.999,490.5z M119.999,402.5
			c-13.531,0-24.5-10.969-24.5-24.5c0-13.53,10.969-24.5,24.5-24.5s24.5,10.97,24.5,24.5
			C144.499,391.531,133.53,402.5,119.999,402.5z M119.999,314.5c-13.531,0-24.5-10.969-24.5-24.5c0-13.531,10.969-24.5,24.5-24.5
			s24.5,10.969,24.5,24.5C144.499,303.531,133.53,314.5,119.999,314.5z M119.999,226.5c-13.531,0-24.5-10.969-24.5-24.5
			c0-13.531,10.969-24.5,24.5-24.5s24.5,10.969,24.5,24.5C144.499,215.531,133.53,226.5,119.999,226.5z M119.999,138.5
			c-13.531,0-24.5-10.969-24.5-24.5c0-13.531,10.969-24.5,24.5-24.5s24.5,10.969,24.5,24.5
			C144.499,127.531,133.53,138.5,119.999,138.5z M187.999,490.5c-13.53,0-24.5-10.969-24.5-24.5c0-13.53,10.97-24.5,24.5-24.5
			c13.531,0,24.5,10.97,24.5,24.5C212.499,479.531,201.53,490.5,187.999,490.5z M187.999,138.5c-13.53,0-24.5-10.969-24.5-24.5
			c0-13.531,10.97-24.5,24.5-24.5c13.531,0,24.5,10.969,24.5,24.5C212.499,127.531,201.53,138.5,187.999,138.5z M392.001,490.5
			c-13.531,0-24.5-10.969-24.5-24.5c0-13.53,10.969-24.5,24.5-24.5s24.5,10.97,24.5,24.5
			C416.501,479.531,405.532,490.5,392.001,490.5z M392.001,138.5c-13.531,0-24.5-10.969-24.5-24.5c0-13.531,10.969-24.5,24.5-24.5
			s24.5,10.969,24.5,24.5C416.501,127.531,405.532,138.5,392.001,138.5z M460.001,490.5c-13.531,0-24.5-10.969-24.5-24.5
			c0-13.53,10.969-24.5,24.5-24.5s24.5,10.97,24.5,24.5C484.501,479.531,473.532,490.5,460.001,490.5z M460.001,402.5
			c-13.531,0-24.5-10.969-24.5-24.5c0-13.53,10.969-24.5,24.5-24.5s24.5,10.97,24.5,24.5
			C484.501,391.531,473.532,402.5,460.001,402.5z M460.001,314.5c-13.531,0-24.5-10.969-24.5-24.5c0-13.531,10.969-24.5,24.5-24.5
			s24.5,10.969,24.5,24.5C484.501,303.531,473.532,314.5,460.001,314.5z M460.001,226.5c-13.531,0-24.5-10.969-24.5-24.5
			c0-13.531,10.969-24.5,24.5-24.5s24.5,10.969,24.5,24.5C484.501,215.531,473.532,226.5,460.001,226.5z M460.001,138.5
			c-13.531,0-24.5-10.969-24.5-24.5c0-13.531,10.969-24.5,24.5-24.5s24.5,10.969,24.5,24.5
			C484.501,127.531,473.532,138.5,460.001,138.5z"/>
		<circle fill="#FFFFFF" cx="460.001" cy="466" r="8"/>
	</g>
	<polygon points="378.913,253.639 252.217,265.593 315.344,99.54 262.997,82.47 208.839,280.353 201.087,308.676 228.082,303.333 
		339.085,282.574 299.158,417.565 273.331,392.675 276.896,497.529 349.51,421.802 315.68,423.04 	"/>
</g>
</svg>
